src/icons/solid/users/skills.svg

<svg width="24" height="24" viewBox="0 0 24 24" fill="none" xmlns="http://www.w3.org/2000/svg">
<g clip-path="url(#clip0_4922_1079)">
<path d="M12.1455 18.0381C14.3795 18.0893 16.4239 19.3418 17.4932 21.3194C17.5208 21.3837 17.5391 21.4577 17.5391 21.5313C17.5389 21.7886 17.3277 22 17.0703 22H6.77832C6.70474 22 6.63079 21.9811 6.56641 21.9444H6.55762C6.33696 21.8156 6.25448 21.54 6.37403 21.3194C7.46853 19.2782 9.61109 18.0096 11.9287 18.0371L12.1455 18.0381Z" fill="#3C3B44"/>
<path d="M11.9287 8.90627C14.2556 8.90627 16.1415 10.7909 16.1416 13.1172C16.1416 15.4436 14.2649 17.3291 11.9287 17.3291H11.9102C9.59249 17.329 7.7168 15.4436 7.7168 13.1172C7.71693 10.7909 9.60185 8.9063 11.9287 8.90627Z" fill="#3C3B44"/>
<path d="M3.04395 10.2481C3.8993 9.8987 4.86535 10.3128 5.21485 11.168H7.00781L7.13574 11.1807C7.42241 11.2385 7.63375 11.4875 7.63379 11.793C7.63379 12.1424 7.35732 12.418 7.00781 12.418H5.21485C5.0493 12.8317 4.71796 13.1724 4.29492 13.3379C3.43956 13.6873 2.47353 13.2732 2.12403 12.418C1.7748 11.5629 2.18871 10.5974 3.04395 10.2481Z" fill="#3C3B44"/>
<path d="M20.335 10.1104C21.2546 10.1104 21.9998 10.8551 22 11.7744C22 12.694 21.2547 13.4395 20.335 13.4395C19.6636 13.4394 19.0475 13.034 18.79 12.418H16.9961C16.6468 12.4178 16.3711 12.1423 16.3711 11.793C16.3712 11.4438 16.6469 11.1682 16.9961 11.168H18.79C19.0383 10.5336 19.6544 10.1017 20.335 10.1016V10.1104Z" fill="#3C3B44"/>
<path d="M16.7939 4.84182C17.4468 4.19826 18.5046 4.20688 19.1484 4.8594V4.85061C19.4703 5.17241 19.6455 5.5954 19.6455 6.04592C19.6455 6.96537 18.8913 7.70105 17.9717 7.70119C17.7417 7.70119 17.5207 7.65505 17.3184 7.57229L16.0488 8.84182C15.9293 8.96114 15.7728 9.02541 15.6074 9.02541C15.442 9.02535 15.2855 8.95206 15.166 8.84182C14.927 8.60282 14.9271 8.2073 15.166 7.95901L16.4355 6.68948C16.1598 6.06434 16.3067 5.32913 16.7939 4.84182Z" fill="#3C3B44"/>
<path d="M4.50586 5.38381C4.86455 4.53787 5.84917 4.14245 6.69531 4.501C7.54143 4.85959 7.9367 5.84354 7.57813 6.68948L8.84766 7.95901V7.94924L8.92578 8.04592C9.08274 8.28511 9.05678 8.61478 8.84766 8.83205C8.72814 8.94236 8.57174 9.01657 8.40625 9.01662C8.24071 9.01662 8.08441 8.95158 7.96485 8.83205L6.69531 7.5635C6.4838 7.64624 6.26271 7.69241 6.04199 7.69241C5.59145 7.69232 5.16811 7.51765 4.85547 7.2051C4.3772 6.72694 4.23914 6.00909 4.50586 5.38381Z" fill="#3C3B44"/>
<path d="M12.0117 2.00002C12.9313 2.00941 13.6758 2.75444 13.6758 3.67385L13.667 3.66408C13.667 4.3444 13.2531 4.95144 12.6279 5.20901V7.00198C12.6279 7.3514 12.3515 7.62795 12.002 7.62795C11.6525 7.62785 11.377 7.35133 11.377 7.00198V5.20901C10.7515 4.96073 10.3379 4.34454 10.3379 3.66408C10.3473 2.74473 11.0921 1.99083 12.0117 2.00002Z" fill="#3C3B44"/>
</g>
<defs>
<clipPath id="clip0_4922_1079">
<rect width="24" height="24" fill="white"/>
</clipPath>
</defs>
</svg>

<svg xmlns="http://www.w3.org/2000/svg" width="24" height="24" fill="none" viewBox="0 0 24 24"><g fill="currentColor" clip-path="url(#a)"><path d="M12.146 18.038a6.25 6.25 0 0 1 5.347 3.281.6.6 0 0 1 .046.212.47.47 0 0 1-.469.469H6.778a.43.43 0 0 1-.212-.056h-.008a.47.47 0 0 1-.184-.625 6.22 6.22 0 0 1 5.555-3.282zm-.217-9.132a4.211 4.211 0 1 1 0 8.423h-.019c-2.318 0-4.193-1.885-4.193-4.212a4.21 4.21 0 0 1 4.212-4.21m-8.885 1.341a1.663 1.663 0 0 1 2.17.92h1.794l.128.013a.62.62 0 0 1 .498.612.62.62 0 0 1-.626.625H5.215a1.65 1.65 0 0 1-.92.92 1.663 1.663 0 0 1-2.171-.92c-.35-.855.065-1.82.92-2.17m17.291-.138a1.664 1.664 0 1 1 0 3.33 1.68 1.68 0 0 1-1.545-1.022h-1.794a.62.62 0 0 1-.625-.625.62.62 0 0 1 .625-.625h1.794a1.67 1.67 0 0 1 1.545-1.066zm-3.541-5.268a1.67 1.67 0 0 1 2.354.017v-.008a1.664 1.664 0 0 1-1.177 2.85c-.23 0-.45-.046-.653-.129l-1.27 1.27a.62.62 0 0 1-.882 0 .633.633 0 0 1 0-.883l1.27-1.27a1.67 1.67 0 0 1 .358-1.847m-12.288.542a1.673 1.673 0 0 1 2.19-.883 1.67 1.67 0 0 1 .882 2.188l1.27 1.27v-.01l.078.097a.636.636 0 0 1-.078.786.66.66 0 0 1-.442.185.62.62 0 0 1-.441-.185l-1.27-1.269a1.8 1.8 0 0 1-.653.13 1.67 1.67 0 0 1-1.187-.488 1.65 1.65 0 0 1-.35-1.821M12.012 2c.92.01 1.664.754 1.664 1.674l-.009-.01c0 .68-.414 1.287-1.04 1.545v1.793a.62.62 0 0 1-.625.626.62.62 0 0 1-.625-.626V5.209a1.66 1.66 0 0 1-1.04-1.545c.01-.92.755-1.673 1.675-1.664"/></g><defs><clipPath id="a"><path fill="currentColor" d="M0 0h24v24H0z"/></clipPath></defs></svg>
